X:1
T:Valet will ich dir geben
C:Melchior Teschner 1613
B:Evangelisches Kirchengesangbuch fr Hessen und Nassau, 18th ed. 1962 #318
Z:Anselm Lingnau <anselm:strathspey.org> 2009-2-12 on stratspey list
N:Compare this tune with Sellenger's Round.
M:4/4
L:1/4
K:C
C2|G G A B|c2 c e|d c A B|c2:|
zc|e e d c|B2 G G|c B A A|G2||
zG|E G A G|G2 E E|F E D D|C2|]
